fonts/svg/megaphone-16.svg

<?xml version="1.0" encoding="UTF-8" standalone="no"?>
<svg
   xmlns:dc="http://purl.org/dc/elements/1.1/"
   xmlns:cc="http://creativecommons.org/ns#"
   xmlns:rdf="http://www.w3.org/1999/02/22-rdf-syntax-ns#"
   xmlns:svg="http://www.w3.org/2000/svg"
   xmlns="http://www.w3.org/2000/svg"
   xmlns:sodipodi="http://sodipodi.sourceforge.net/DTD/sodipodi-0.dtd"
   xmlns:inkscape="http://www.inkscape.org/namespaces/inkscape"
   width="16"
   height="16"
   viewBox="0 0 16 16"
   version="1.1"
   id="svg835"
   sodipodi:docname="megaphone-16.svg"
   inkscape:version="1.0.1 (c497b03c, 2020-09-10)">
  <metadata
     id="metadata841">
    <rdf:RDF>
      <cc:Work
         rdf:about="">
        <dc:format>image/svg+xml</dc:format>
        <dc:type
           rdf:resource="http://purl.org/dc/dcmitype/StillImage" />
      </cc:Work>
    </rdf:RDF>
  </metadata>
  <defs
     id="defs839" />
  <sodipodi:namedview
     pagecolor="#ffffff"
     bordercolor="#666666"
     borderopacity="1"
     objecttolerance="10"
     gridtolerance="10"
     guidetolerance="10"
     inkscape:pageopacity="0"
     inkscape:pageshadow="2"
     inkscape:window-width="1440"
     inkscape:window-height="900"
     id="namedview837"
     showgrid="false"
     inkscape:zoom="38.625"
     inkscape:cx="8"
     inkscape:cy="8"
     inkscape:window-x="0"
     inkscape:window-y="0"
     inkscape:window-maximized="0"
     inkscape:current-layer="svg835" />
  <path
     fill-rule="evenodd"
     d="M 15.571,0.572 C 15.833025,0.69608627 16.000064,0.96007881 16,1.25 L 14.777,0.668 c 0.001,0 0,0 0,0 L 14.762,0.68 14.686,0.736 C 14.573829,0.81493625 14.458749,0.88965501 14.341,0.96 13.873751,1.2391522 13.384453,1.4796205 12.878,1.679 11.556,2.207 9.527,2.749 6.754,2.75 6.4966898,2.5863161 6.1979603,2.499577 5.893,2.5 H 4 c -4.40043218,-0.00408 -5.5804045,6.0650206 -1.499,7.71 -6.852e-4,0.01332 -0.00102,0.02666 -10e-4,0.04 0,2.32 0.486,3.93 0.813,4.75 0.262,0.66 0.897,1 1.517,1 h 1.197 c 0.685,0 1.228,-0.389 1.546,-0.857 0.317,-0.466 0.468,-1.09 0.31,-1.696 -0.2,-0.767 -0.382,-1.835 -0.383,-3.183 2.394,0.086 4.177,0.577 5.378,1.057 0.506484,0.19931 0.995788,0.439781 1.463,0.719 0.144406,0.08706 0.284877,0.180486 0.421,0.28 l 0.014,0.012 h 0.002 c 0.490032,0.396834 1.221284,0.04856 1.222,-0.582 V 1.25 L 14.777,0.668 C 15.001101,0.48577966 15.309928,0.44844042 15.571,0.572 Z M 5.892,10.5 c 0.036701,-1.02e-4 0.073388,-0.0014 0.11,-0.004 0.00965,1.122872 0.1540187,2.240529 0.43,3.329 0.034058,0.16535 -0.00217,0.337417 -0.1,0.475 -0.103,0.153 -0.222,0.2 -0.305,0.2 H 4.83 c -0.033923,0.001 -0.06748,-0.0073 -0.097,-0.024 C 4.716,14.466 4.71,14.456 4.706,14.446 4.452,13.806 4.035,12.469 4.002,10.5 Z M 7.5,4.237 C 10.1,4.15 12.073,3.616 13.435,3.071 13.846,2.907 14.2,2.742 14.5,2.588 v 7.824 C 14.201,10.259 13.845,10.093 13.435,9.929 12.073,9.383 10.101,8.85 7.5,8.763 Z M 1.5,6.5 C 1.5,5.1192881 2.6192881,4 4,4 H 5.893 C 5.952,4 6,4.048 6,4.107 V 8.893 C 6,8.9520945 5.9520945,9 5.893,9 H 4 C 2.6192881,9 1.5,7.8807119 1.5,6.5 Z"
     id="path833"
     sodipodi:nodetypes="ccccccccccccccssccccccccccccccccsccccccccccccssssssss" />
</svg>

<svg xmlns="http://www.w3.org/2000/svg" width="16" height="16" viewBox="0 0 16 16"><path fill-rule="evenodd" d="M15.571.572A.75.75 0 0116 1.25L14.777.668c.001 0 0 0 0 0l-.015.012-.076.056a5.508 5.508 0 01-.345.224 9.982 9.982 0 01-1.463.719c-1.322.528-3.351 1.07-6.124 1.071a1.6 1.6 0 00-.861-.25H4a4 4 0 00-1.499 7.71.758.758 0 00-.001.04c0 2.32.486 3.93.813 4.75.262.66.897 1 1.517 1h1.197c.685 0 1.228-.389 1.546-.857.317-.466.468-1.09.31-1.696-.2-.767-.382-1.835-.383-3.183 2.394.086 4.177.577 5.378 1.057a9.965 9.965 0 011.463.719 5.7 5.7 0 01.421.28l.014.012h.002A.75.75 0 0016 11.75V1.25L14.777.668a.75.75 0 01.794-.096zM4.002 10.5c.033 1.969.45 3.306.704 3.946.004.01.01.02.027.03a.185.185 0 00.097.024h1.197c.083 0 .202-.047.305-.2a.608.608 0 00.1-.475 14.036 14.036 0 01-.43-3.329 1.64 1.64 0 01-.11.004h-1.89zM7.5 8.763c2.601.087 4.573.62 5.935 1.166.41.164.766.33 1.065.483V2.588c-.3.154-.654.319-1.065.483C12.073 3.616 10.1 4.15 7.5 4.237v4.526zM14.777.668zM1.5 6.5A2.5 2.5 0 014 4h1.893c.059 0 .107.048.107.107v4.786A.107.107 0 015.893 9H4a2.5 2.5 0 01-2.5-2.5z"/></svg>
